X: 08070
T: MARCIA'S JIG
C: Bob McQuillen 17 Mar 91
B: Bob's Note Book 8 #70
%R: jig
Z: 2021 John Chambers <jc:trillian.mit.edu>
M: 6/8
L: 1/8
K: Am
B \
| cAF ABc | dec BAG | cAF AcA | AGE GAB |\
| cAF ABc | dec BAG | Ace dBG | ABA A2 :|
|: g \
| ede ceg | gag ecd | ede ceg | age gag |\
| ece dcA | AGE Gcd | eag ede | cAA A2 :|
%%begintext align
%% I've
%% known Marcia Young for such a long
%% time, and it's always nice to see her
%% each year at the New England Folk Festival.
%% I'm glad this tune is for you, Marcia!
%%endtext

%%sep 1 1 500

%%sep 1 1 500

